assets/images/cloudmill.svg

<svg width="134" height="28" viewBox="0 0 134 28" fill="none" xmlns="http://www.w3.org/2000/svg">
<path d="M0.77 14.016C0.77 16.886 2.758 19.168 5.754 19.168C7.49 19.168 8.694 18.454 9.52 17.642L8.96 16.956C8.12 17.782 6.944 18.258 5.782 18.258C3.346 18.258 1.778 16.34 1.778 14.002C1.778 11.692 3.346 9.9 5.74 9.9C6.804 9.9 7.98 10.306 8.75 10.978L9.268 10.264C8.33 9.368 6.958 8.99 5.712 8.99C2.828 8.99 0.77 11.16 0.77 14.016ZM12.0928 18.188C13.1428 16.606 13.2408 14.24 13.2408 13.19V12.77H15.7048V18.188H12.0928ZM10.2028 18.188V20.68H11.1128V19H16.7408V20.68H17.6508V18.188H16.6568V11.958H12.3028V13.106C12.3028 14.058 12.2608 16.634 11.0708 18.188H10.2028ZM18.6365 15.486C18.6365 17.656 20.2325 19.168 22.3325 19.168C23.2565 19.168 24.2785 18.79 24.9365 18.188L24.5025 17.46C23.9285 17.978 23.1305 18.3 22.3605 18.3C20.9045 18.3 19.6725 17.306 19.6305 15.514H25.0345C25.0485 15.36 25.0625 15.192 25.0625 15.038C25.0625 13.288 24.0685 11.79 22.1225 11.79C20.2185 11.79 18.6365 13.176 18.6365 15.486ZM19.6725 14.758C19.8965 13.344 20.9185 12.574 22.0945 12.574C23.1445 12.574 24.0405 13.288 24.0965 14.758H19.6725ZM25.9968 19.056C27.8028 18.916 28.6008 17.418 28.6008 14.086V12.784H31.0368V19H31.9888V11.958H27.6768V14.086C27.6768 16.69 27.1728 18.02 25.9968 18.202V19.056ZM33.6586 17.11C33.6586 18.468 34.8486 19.168 36.0386 19.168C37.1726 19.168 38.0546 18.44 38.4186 17.586H38.4466C38.4466 17.586 38.4046 17.824 38.4046 18.174V19H39.3146V14.492C39.3146 12.728 38.3766 11.79 36.6826 11.79C35.7446 11.79 34.7506 12.112 34.1906 12.588L34.6246 13.316C35.1986 12.896 35.9126 12.644 36.6266 12.644C37.6206 12.644 38.3626 13.106 38.3626 14.464V14.66H37.9426C36.5986 14.66 33.6586 14.8 33.6586 17.11ZM34.6246 17.026C34.6246 15.458 36.8646 15.416 37.9566 15.416H38.3626V15.738C38.3626 16.97 37.5646 18.37 36.2066 18.37C35.1566 18.37 34.6246 17.684 34.6246 17.026ZM41.507 19H42.459V15.808H46.575V19H47.527V11.958H46.575V14.968H42.459V11.958H41.507V19ZM49.3162 15.444C49.3162 17.572 50.9682 19.168 53.0262 19.168C55.0842 19.168 56.7502 17.572 56.7502 15.444C56.7502 13.358 55.0842 11.79 53.0262 11.79C50.9682 11.79 49.3162 13.358 49.3162 15.444ZM50.2962 15.444C50.2962 13.848 51.5142 12.644 53.0262 12.644C54.5382 12.644 55.7702 13.848 55.7702 15.444C55.7702 17.096 54.5382 18.3 53.0262 18.3C51.5142 18.3 50.2962 17.096 50.2962 15.444ZM62.0285 19H64.7165C66.2985 19 67.2645 18.244 67.2645 17.026C67.2645 16.2 66.7465 15.514 65.8365 15.332V15.304C66.5225 15.052 66.9005 14.478 66.9005 13.75C66.9005 12.588 66.0045 11.958 64.5765 11.958H62.0285V19ZM62.9805 15.01V12.686H64.4225C65.4165 12.686 65.9205 13.05 65.9205 13.806C65.9205 14.562 65.4305 15.01 64.4785 15.01H62.9805ZM62.9805 18.258V15.738H64.5765C65.6685 15.738 66.2845 16.186 66.2845 17.012C66.2845 17.768 65.7525 18.258 64.5905 18.258H62.9805ZM72.1355 14.002C72.1355 16.9 74.1375 19.168 77.2035 19.168C78.9535 19.168 80.1855 18.44 81.0255 17.6L80.2835 16.606C79.4855 17.404 78.3515 17.894 77.2455 17.894C74.9495 17.894 73.5635 16.088 73.5635 13.988C73.5635 11.902 74.9215 10.208 77.2175 10.208C78.2395 10.208 79.3455 10.642 80.0735 11.286L80.7735 10.25C79.8215 9.34 78.4355 8.948 77.1615 8.948C74.2215 8.948 72.1355 11.132 72.1355 14.002ZM82.5207 17.054C82.5207 18.846 83.6407 19.07 84.4247 19.07C84.6207 19.07 84.7747 19.042 84.8727 19.028V17.824C84.7887 17.838 84.6907 17.838 84.6347 17.838C84.2147 17.838 83.8647 17.67 83.8647 16.83V9.116H82.5207V17.054ZM85.7911 15.444C85.7911 17.6 87.4991 19.168 89.6131 19.168C91.7131 19.168 93.4211 17.6 93.4211 15.444C93.4211 13.302 91.7131 11.748 89.5991 11.748C87.4991 11.748 85.7911 13.302 85.7911 15.444ZM87.1771 15.444C87.1771 13.974 88.2691 12.924 89.6131 12.924C90.9431 12.924 92.0491 13.974 92.0491 15.444C92.0491 16.928 90.9431 17.992 89.6131 17.992C88.2691 17.992 87.1771 16.928 87.1771 15.444ZM94.9738 16.452C94.9738 18.328 95.7998 19.168 97.3958 19.168C98.7818 19.168 99.7198 18.202 100.028 17.502H100.056C100.056 17.502 99.9998 17.74 99.9998 18.02V19H101.316V11.916H99.9718V15.234C99.9718 16.634 99.1178 17.908 97.6618 17.908C96.5418 17.908 96.3318 17.124 96.3318 16.144V11.916H94.9738V16.452ZM102.977 15.458C102.977 17.656 104.195 19.168 106.099 19.168C107.219 19.168 108.045 18.58 108.451 17.81H108.479C108.479 17.81 108.437 18.006 108.437 18.286V19H109.725V9.116H108.381V12.434C108.381 12.7 108.409 12.91 108.409 12.91H108.381C107.933 12.154 107.079 11.748 106.183 11.748C104.307 11.748 102.977 13.204 102.977 15.458ZM104.363 15.458C104.363 13.848 105.287 12.938 106.393 12.938C107.751 12.938 108.409 14.17 108.409 15.444C108.409 17.236 107.415 17.992 106.365 17.992C105.189 17.992 104.363 16.998 104.363 15.458ZM111.625 19H113.011L113.487 12.77C113.543 12.168 113.515 11.286 113.515 11.286H113.543C113.543 11.286 113.851 12.238 114.075 12.77L116.035 17.222H117.267L119.241 12.77C119.465 12.224 119.773 11.314 119.773 11.314H119.801C119.801 11.314 119.773 12.168 119.829 12.77L120.305 19H121.677L120.879 9.116H119.437L117.155 14.464C116.931 15.01 116.665 15.794 116.665 15.794H116.637C116.637 15.794 116.385 15.01 116.161 14.464L113.879 9.116H112.437L111.625 19ZM123.563 10.488H124.963V9.116H123.563V10.488ZM123.591 19H124.949V11.916H123.591V19ZM127.036 17.054C127.036 18.846 128.156 19.07 128.94 19.07C129.136 19.07 129.29 19.042 129.388 19.028V17.824C129.304 17.838 129.206 17.838 129.15 17.838C128.73 17.838 128.38 17.67 128.38 16.83V9.116H127.036V17.054ZM130.769 17.054C130.769 18.846 131.889 19.07 132.673 19.07C132.869 19.07 133.023 19.042 133.121 19.028V17.824C133.037 17.838 132.939 17.838 132.883 17.838C132.463 17.838 132.113 17.67 132.113 16.83V9.116H130.769V17.054Z" fill="#1D1D1D"/>
</svg>

<svg width="134" height="28" fill="none" xmlns="http://www.w3.org/2000/svg"><path d="M.77 14.016c0 2.87 1.988 5.152 4.984 5.152 1.736 0 2.94-.714 3.766-1.526l-.56-.686a4.602 4.602 0 01-3.178 1.302c-2.436 0-4.004-1.918-4.004-4.256 0-2.31 1.568-4.102 3.962-4.102 1.064 0 2.24.406 3.01 1.078l.518-.714C8.33 9.368 6.958 8.99 5.712 8.99 2.828 8.99.77 11.16.77 14.016zm11.323 4.172c1.05-1.582 1.148-3.948 1.148-4.998v-.42h2.464v5.418h-3.612zm-1.89 0v2.492h.91V19h5.628v1.68h.91v-2.492h-.994v-6.23h-4.354v1.148c0 .952-.042 3.528-1.232 5.082h-.868zm8.434-2.702c0 2.17 1.596 3.682 3.695 3.682.924 0 1.947-.378 2.604-.98l-.433-.728c-.575.518-1.372.84-2.143.84-1.456 0-2.688-.994-2.73-2.786h5.405c.014-.154.027-.322.027-.476 0-1.75-.994-3.248-2.94-3.248-1.904 0-3.485 1.386-3.485 3.696zm1.035-.728c.224-1.414 1.247-2.184 2.422-2.184 1.05 0 1.947.714 2.002 2.184h-4.424zm6.325 4.298c1.806-.14 2.604-1.638 2.604-4.97v-1.302h2.436V19h.952v-7.042h-4.312v2.128c0 2.604-.504 3.934-1.68 4.116v.854zm7.662-1.946c0 1.358 1.19 2.058 2.38 2.058 1.134 0 2.016-.728 2.38-1.582h.028s-.042.238-.042.588V19h.91v-4.508c0-1.764-.938-2.702-2.632-2.702-.938 0-1.932.322-2.492.798l.434.728a3.44 3.44 0 012.002-.672c.994 0 1.736.462 1.736 1.82v.196h-.42c-1.344 0-4.284.14-4.284 2.45zm.966-.084c0-1.568 2.24-1.61 3.332-1.61h.406v.322c0 1.232-.798 2.632-2.156 2.632-1.05 0-1.582-.686-1.582-1.344zM41.507 19h.952v-3.192h4.116V19h.952v-7.042h-.952v3.01h-4.116v-3.01h-.952V19zm7.81-3.556c0 2.128 1.651 3.724 3.71 3.724 2.057 0 3.723-1.596 3.723-3.724 0-2.086-1.666-3.654-3.724-3.654-2.058 0-3.71 1.568-3.71 3.654zm.98 0c0-1.596 1.217-2.8 2.73-2.8 1.511 0 2.743 1.204 2.743 2.8 0 1.652-1.232 2.856-2.744 2.856-1.512 0-2.73-1.204-2.73-2.856zM62.028 19h2.687c1.583 0 2.549-.756 2.549-1.974 0-.826-.519-1.512-1.428-1.694v-.028c.685-.252 1.063-.826 1.063-1.554 0-1.162-.896-1.792-2.324-1.792H62.03V19zm.951-3.99v-2.324h1.443c.993 0 1.498.364 1.498 1.12 0 .756-.49 1.204-1.443 1.204H62.98zm0 3.248v-2.52h1.596c1.093 0 1.709.448 1.709 1.274 0 .756-.532 1.246-1.694 1.246h-1.61zm9.155-4.256c0 2.898 2.002 5.166 5.069 5.166 1.75 0 2.982-.728 3.822-1.568l-.742-.994c-.799.798-1.933 1.288-3.038 1.288-2.296 0-3.682-1.806-3.682-3.906 0-2.086 1.358-3.78 3.654-3.78 1.022 0 2.127.434 2.855 1.078l.7-1.036c-.951-.91-2.337-1.302-3.611-1.302-2.94 0-5.027 2.184-5.027 5.054zm10.386 3.052c0 1.792 1.12 2.016 1.904 2.016.196 0 .35-.028.448-.042v-1.204c-.084.014-.182.014-.238.014-.42 0-.77-.168-.77-1.008V9.116H82.52v7.938zm3.27-1.61c0 2.156 1.708 3.724 3.822 3.724 2.1 0 3.808-1.568 3.808-3.724 0-2.142-1.708-3.696-3.822-3.696-2.1 0-3.808 1.554-3.808 3.696zm1.386 0c0-1.47 1.092-2.52 2.436-2.52 1.33 0 2.436 1.05 2.436 2.52 0 1.484-1.106 2.548-2.436 2.548-1.344 0-2.436-1.064-2.436-2.548zm7.797 1.008c0 1.876.826 2.716 2.422 2.716 1.386 0 2.324-.966 2.632-1.666h.028s-.056.238-.056.518V19h1.316v-7.084h-1.344v3.318c0 1.4-.854 2.674-2.31 2.674-1.12 0-1.33-.784-1.33-1.764v-4.228h-1.358v4.536zm8.003-.994c0 2.198 1.218 3.71 3.122 3.71 1.12 0 1.946-.588 2.352-1.358h.028s-.042.196-.042.476V19h1.288V9.116h-1.344v3.318c0 .266.028.476.028.476h-.028c-.448-.756-1.302-1.162-2.198-1.162-1.876 0-3.206 1.456-3.206 3.71zm1.386 0c0-1.61.924-2.52 2.03-2.52 1.358 0 2.016 1.232 2.016 2.506 0 1.792-.994 2.548-2.044 2.548-1.176 0-2.002-.994-2.002-2.534zM111.625 19h1.386l.476-6.23c.056-.602.028-1.484.028-1.484h.028s.308.952.532 1.484l1.96 4.452h1.232l1.974-4.452c.224-.546.532-1.456.532-1.456h.028s-.028.854.028 1.456l.476 6.23h1.372l-.798-9.884h-1.442l-2.282 5.348c-.224.546-.49 1.33-.49 1.33h-.028s-.252-.784-.476-1.33l-2.282-5.348h-1.442L111.625 19zm11.938-8.512h1.4V9.116h-1.4v1.372zm.028 8.512h1.358v-7.084h-1.358V19zm3.445-1.946c0 1.792 1.12 2.016 1.904 2.016.196 0 .35-.028.448-.042v-1.204c-.084.014-.182.014-.238.014-.42 0-.77-.168-.77-1.008V9.116h-1.344v7.938zm3.733 0c0 1.792 1.12 2.016 1.904 2.016.196 0 .35-.028.448-.042v-1.204c-.084.014-.182.014-.238.014-.42 0-.77-.168-.77-1.008V9.116h-1.344v7.938z" fill="#1D1D1D"/></svg>
